X: 031
M: 3/4
L: 1/8
K: C
|:\
!p!.[E2G,6].E2.E2 | [D4G,6]DE |\
(.[F2G,6].F2.F2) | !+![F2G,6]E4 |\
[G4G,6]F2 | [E2G,6](F2G2) |\
[G2G,6](F2E2) | !+![E2G,6]D4 :|
|:\
!f!G3 ABc | d2(f2e2) |\
{fg}.a2(gfed) | (cB)(AG)(cG) !p!|\
{A}[G2G,6](F2!f!E2) | ([E4G,6]D)!p!z |
(.[E2G,6].E2.E2) | [D4G,6]DE |\
(.[F2G,6].F2.F2) | !+![F2G,6]E4 !f!|\
g4{c}B2 | c2.d.fe2 | a2(fd).c.B | (B4c)z :|

